teeny/solid/gba.svg

<svg width="15" height="15" viewBox="0 0 15 15" fill="none" xmlns="http://www.w3.org/2000/svg">
<path fill-rule="evenodd" clip-rule="evenodd" d="M3.7189 2.41987C4.12957 2.14609 4.61209 2 5.10565 2H9.89455C10.3881 2 10.8706 2.1461 11.2813 2.41987L12.1515 3.00004C13.457 3.00706 14.5384 4.01817 14.6315 5.32188L14.9512 9.79764C14.9944 10.403 14.6687 10.9747 14.1258 11.2461L12.0358 12.2912C11.7957 12.4112 11.5433 12.5046 11.2829 12.5697C8.79925 13.1906 6.20095 13.1906 3.7173 12.5697C3.45694 12.5046 3.20448 12.4112 2.96444 12.2912L0.874364 11.2461C0.331546 10.9747 0.00575782 10.403 0.0489969 9.79764L0.368694 5.32188C0.461816 4.01817 1.54318 3.00706 2.84866 3.00004L3.7189 2.41987ZM3 8V7H2V6H3V5H4V6H5V7H4V8H3ZM13 7H12V6H13V7ZM11 9H12V8H11V9Z" fill="black"/>
</svg>

<svg viewBox="0 0 15 15" xmlns="http://www.w3.org/2000/svg"><path fill-rule="evenodd" d="M3.71 2.41c.41-.28.89-.42 1.38-.42h4.78c.49 0 .97.14 1.38.41l.87.58c1.3 0 2.38 1.01 2.48 2.32l.31 4.47c.04.6-.29 1.17-.83 1.44l-2.09 1.04c-.25.12-.5.21-.76.27 -2.49.62-5.09.62-7.57 0 -.27-.07-.52-.16-.76-.28L.8 11.19c-.55-.28-.87-.85-.83-1.45l.31-4.48c.09-1.31 1.17-2.32 2.47-2.33l.87-.59Zm-.72 5.58v-1h-1v-1h1v-1h1v1h1v1h-1v1h-1Zm10-1h-1v-1h1v1Zm-2 2h1v-1h-1v1Z"/></svg>
